!!!COM: Claude Debussy
!!!CNT: Francais
!!!TXO: Francais
!!!OTL: Clair de Lune
!!!LYR: Paul Verlaine
!!!ENC: Jacob Pegg
!!!YOR: Claude Debussy: Songs 1880-1904, Edited by Rita Benton
!!!YOR: New York: Dover publications, inc., 1981
!!!YOR: ISBN 0-486-24131-9
!!!ODT: 1882/
!!NB: Vocal melody and text only encoded.
!!NB: First instance of melodic material only encoded.
**kern	**silbe
*clef G2	*
*k[f#c#g#d#a#]	*
*M9/8	*
*MM85	*
!! created: 7/3/03 11:57
!! last edited: 7/17/03 14:42
!! time (min) : input notes 13, words 5.  check : notes 10, words 4.
!! total edit time: about 37 min.
=5	=5
8r	.
8r	.
{8d#	{Votre
4e	a^me
8e	est
8f#	un
8e	pa-
8f#	-y-
=6	=6
8g#	-sa-
8d#	-ge
8g#	choi-
4.e}	-si}
{4.gn	{Que
=7	=7
[4.a#	vont
8a#]	|
8g#	char-
8e#	-mant
8en	mas-
16c#	-ques
16en	et
16g#	ber-
16cc#	-ga-
=8	=8
4a#	-mas-
8e#}	-ques,}
4r	.
8r	.
4r	.
8r	.
=9	=9
!!subsequent rest dotted to correct timing
4.r	.
{(8d#	{Jou-
8d#	-ant
8d#	du
8d#	luth
8d#	et
8d#	dan-
=10	=10
4.e)	-sant,
(4.g#	et
4a#	qua-
8b)}	-si}
=11	=11
{[4.ccn	{Tris-
4ccn]	|
8ccn	-tes
8b	sous
16gn	leurs
16b	de/-
16b	-gui-
16gn	-se-
=12	=12
16gn	-ments
16fn	fan-
[4gn	-tas-
(4gn]	|
8d#)}	-ques.}
4r	.
8r	.
=13	=13
4r	.
8r	.
8r	.
16r	.
{16e	{Tout
16f#	en
16g#	chan-
8a#	-tant
8g#	sur
8a#	le
=14	=14
8a#	mo-
8g#	-de
8b	mi-
4.a#}	-neur}
{8g#	{L'a-
8a#	-mour
8b	vain-
=15	=15
[4.dd#	-quer
8dd#]	|
8b	et
8cc#	la
8dd#	vie
8b	op-
8g#	-por-
=16	=16
2.ee	-tu-
4.cc#}	-ne,}
=17	=17
{8ff#	{Ils
8ddn	n'ont
8ff#	pas
4b	l'air
8b	de
8.ff#	croire
16ddn	a\
16ff#	leur
16ddn	bon-
=18	=18
(2.cc#	-heur,
4b)}	|}
8r	.
=19	=19
{8b-	{Et
8an	leur
8b-	chan-
4an	-son
8b-	se
8.gn	me^le
16gn	au
16an	clair
16b-	de
=20	=20
[2.ddn	lu-
4.ddn]}	-ne,}
=21	=21
{(4.dd#	{Au
4ff#	cal-
8dd#	-me
4ddn	clair
8ddn	de
=22	=22
4.dd#	lu-
4.b)	-ne
(4g#	triste
8d#	et
=23	=23
2.e)}	beau,}
{(8an	{Qui
8b#	fait
8dd#	re^-
=24	=24
4.ee)	-ver
(4cc#	les
8a#	oi-
8an	-seaux
8b#	dans
8dd#	les
=25	=25
4.ee	ar-
4.cc#)}	-bres,}
{4.ee	{Et
=26	=26
4ffn	san-
8ee-	-glo-
4ffn	-ter
8ee-	d'ex-
8.ffn	-ta-
16ddn	-se
16ee-	les
16ffn	jets
=27	=27
[4.ff#	d'eau
8ff#]}	|}
8r	.
{8ee#	{Les
8ff#	grands
8ee#	jets
8dd#	d'eau
=28	=28
[4.cc#	svel-
4cc#]	|
8b	-tes
8cc#	par-
8b	-mi
8a#	les
=29	=29
2.g#	mar-
4.f#	|
=30	=30
2.d#}	-bres.}
4r	.
8r	.
*-	*-
